X: 474
T:The Jolly Corkonian
T:The Hills of Glenorchie
M:6/8
L:1/8
Z:Norman Sams
N:Posted to the woodenflute mailing list January 2002
K:C
|:AGA D3|AGA c2A|GEG CDC|EDC EGc|AGA D3|AGA c2e|dAc GEC |DED D3:|
|:A2d dcd|cde gec|d2c cAG|A2c cAG|A2d dcd|cde gec|dcA GEG|ADD D3:|

